X:1
T:Title
%%score 1 2 3 4
L:1/8
M:4/4
K:F
V:1 treble nm="Church Organ, Church Organ"
V:2 treble nm="French Horn, French Horn"
V:3 treble nm="Trombone, Trombone"
V:4 bass nm="Tuba, Tuba"
V:1
 A2 A2- A/ z/ _A =A2 | F2 c2- c/ z/ B A2- | A2 c2- c/ z/ c d2 | c2 cB A2 G2- | G2 G2- G/ z/ A B2 | %5
w: By~Adam~Geibel * * * *|||||
 G2 c2- c/ z/ B B2 | A2 c2- c/ z/ d e2 | G2 e2- e/ z/ d c2- | c2 d2- d/ z/ c c2 | %9
w: ||||
 B2 c2- c/ z/ B B2 | A2 A2- A/ z/ =B c2 | =B2 c2 d2 e2- | e2 e2- e/ z/ e f2 | c2 B2- B/ z/ c B2 | %14
w: |||||
 A2 d2- d/ z/ B A2 | cB A2- A/ z/ G F2 |] %16
w: ||
V:2
 F2 F2- F/ z/ F F2 | F2 E2- E/ z/ E F2- | F2 F2- F/ z/ F F2 | F2 G2 F2 E2- | E2 E2- E/ z/ F G2 | %5
w: The~ shep * herds~ saw~|in~ East * ern~ sky,~|* Star~ * of~ prom|ise~ shin ing~ bright,~|* Ev * er~ gleam|
 E2 A2- A/ z/ G G2 | F2 F2 ^F2 G2 | G2 F2- F/ z/ F E2- | E2 B2- B/ z/ A A2 | G2 A2- A/ z/ G G2 | %10
w: ing,~ gleam * ing~ ev|er,~ With~ * bright~|ef ful * gent~ light.~|* Bless * ed~ Sa|viour,~ Son~ * of~ Ma|
 F2 E2- E/ z/ _A =A2 | _A2 =A2 F2 E2- | E2 G2- G/ z/ G F2 | F2 F2 E2 F2 | F2 F2- F/ z/ G F2 | %15
w: ry,~ In~ * a~ sta|ble~ He~ was~ born,~|* Ho * ly~ An|gels~ wat * o'er~|Him,~ On~ * that~ na|
 F2 E2- E/ z/ E F2 |] %16
w: tal~ Christ * mas~ morn.~|
V:3
 C2 C2- C/ z/ =B, C2 | A,2 G,2- G,/ z/ C C2- | C2 C2- C/ z/ C B,2 | C2 C2 C2 C2- | %4
 C2 C2- C/ z/ C C2 | C2 C2- C/ z/ C C2 | C2 C2- C/ z/ C C2 | %7
 E2[K:bass] [G,=B,]2- [G,B,]/ z/ B, C2- | C2 z2 z4 | z2[K:treble] C2- C/ z/ C C2 | %10
 C2 C2- C/ z/ E E2 | E2 E2 =B,2 C2- | C2 C2- C/ z/ C C2 | C2 D2 C2 C2 | %14
 C2[K:bass] B,2- B,/ z/ D C2 | A,D C2- C/ z/ B, [F,A,]2 |] %16
V:4
 F,2 F,2- F,/ z/ F, F,2 | F,2 C,2- C,/ z/ C, F,2- | F,2 A,2- A,/ z/ A, B,2 | A,2 E,2 F,A, C2- | %4
 C2 C,2- C,/ z/ C, C,2 | C,2 C,2- C,/ z/ C, F,2 | F,2 A,2 _A,2 G,2 | G,2 G,,2- G,,/ z/ G,, C,2- | %8
 C,2 z2 z4 | z2 C,2 D,E, F,2 | F,2 E,2- E,/ z/ E, A,2 | E,2 A,2 G,2 C,2- | C,2 B,2- B,/ z/ B, A,2 | %13
 A,2 G,2 C,2 F,2 | F,2 B,,2- B,,/ z/ B,, C,2 | C,2 C,2- C,/ z/ C, F,,2 |] %16

